X: 6
T: Paddy Fahey's
R: jig
M: 6/8
L: 1/8
K: Gdor
F| DGA B2 c|cBc d2g|gfd Bcd|cAG FDC|DGA B2 c|cBc d2 g|gfd Bcd|1cAF G2 D:||2cAF GBd|:g3 fga|gfd Bcd|c2 A f3|agf def|g2 a bag|fdg fdc|B2G Adc|1 AGF GBd :|2AGF G2D ||


Tune 532	Setting 13468

